packages/vue-material-icons/lib/action/account_circle/materialiconstwotone/20px.svg

<svg xmlns="http://www.w3.org/2000/svg" enable-background="new 0 0 20 20" height="20" viewBox="0 0 20 20" width="20"><g><rect fill="none" height="20" width="20"/></g><g><g><path d="M10 3.5c-3.58 0-6.5 2.92-6.5 6.5 0 1.54.54 2.95 1.43 4.06 1.45-.98 3.19-1.56 5.07-1.56s3.62.58 5.07 1.56c.9-1.11 1.43-2.53 1.43-4.06 0-3.58-2.92-6.5-6.5-6.5zm0 8c-1.66 0-3-1.34-3-3s1.34-3 3-3 3 1.34 3 3-1.34 3-3 3z" enable-background="new" opacity=".3"/><path d="M10 5.5c-1.66 0-3 1.34-3 3s1.34 3 3 3 3-1.34 3-3-1.34-3-3-3zm0 4.5c-.83 0-1.5-.67-1.5-1.5S9.17 7 10 7s1.5.67 1.5 1.5S10.83 10 10 10z"/><path d="M10 2c-4.42 0-8 3.58-8 8s3.58 8 8 8 8-3.58 8-8-3.58-8-8-8zm0 14.5c-1.49 0-2.86-.51-3.96-1.36C7.19 14.42 8.55 14 10 14s2.81.42 3.96 1.14c-1.1.85-2.47 1.36-3.96 1.36zm5.07-2.44c-1.44-.99-3.19-1.56-5.07-1.56s-3.62.58-5.07 1.56C4.04 12.95 3.5 11.54 3.5 10c0-3.58 2.92-6.5 6.5-6.5s6.5 2.92 6.5 6.5c0 1.54-.54 2.95-1.43 4.06z"/></g></g></svg>

<svg xmlns="http://www.w3.org/2000/svg" enable-background="new 0 0 20 20" height="20" viewBox="0 0 20 20" width="20"><g><rect fill="none" height="20" width="20"/></g><g><g><path d="M10,3.5c-3.58,0-6.5,2.92-6.5,6.5c0,1.54,0.54,2.95,1.43,4.06 C6.38,13.08,8.12,12.5,10,12.5s3.62,0.58,5.07,1.56c0.9-1.11,1.43-2.53,1.43-4.06C16.5,6.42,13.58,3.5,10,3.5z M10,11.5 c-1.66,0-3-1.34-3-3s1.34-3,3-3s3,1.34,3,3S11.66,11.5,10,11.5z" enable-background="new" opacity=".3"/><path d="M10,5.5c-1.66,0-3,1.34-3,3s1.34,3,3,3s3-1.34,3-3S11.66,5.5,10,5.5z M10,10c-0.83,0-1.5-0.67-1.5-1.5S9.17,7,10,7 s1.5,0.67,1.5,1.5S10.83,10,10,10z"/><path d="M10,2c-4.42,0-8,3.58-8,8s3.58,8,8,8s8-3.58,8-8S14.42,2,10,2z M10,16.5c-1.49,0-2.86-0.51-3.96-1.36 C7.19,14.42,8.55,14,10,14s2.81,0.42,3.96,1.14C12.86,15.99,11.49,16.5,10,16.5z M15.07,14.06c-1.44-0.99-3.19-1.56-5.07-1.56 s-3.62,0.58-5.07,1.56C4.04,12.95,3.5,11.54,3.5,10c0-3.58,2.92-6.5,6.5-6.5s6.5,2.92,6.5,6.5C16.5,11.54,15.96,12.95,15.07,14.06 z"/></g></g></svg>
